X: 15004
T: Gentleman Johnny
R: reel
M: 4/4
K: Gdorian
|:BG~G2 B,DGB|Ac~c2 dBcA|Bg~g2 fdcA|BdcA GBdc
BG~G2 B,DGB|AF~F2 CFAc|dcBA GFDC|1 Ddcd BGGc:|2 Ddcd BGBc||
|:dg~g2 Bgbg|f2af cfaf|dggf gbag|fdcA DGBd|
g2bg Bgbg|f2af cfaf|~d2de fbag|1 fdcA GABc:|2 fdcA GBdc||

